X:1
T:Title
%%score ( 1 2 ) { 3 | 4 }
L:1/8
Q:1/4=84
M:4/4
K:G
V:1 treble nm="Grand Piano, Soprano"
V:2 treble 
V:3 bass nm="Choir Pad, Bass"
V:4 bass 
V:1
 [B,D][CD] [DG]<[DG] [DG]>[EA] [GB][GB] | [GA][DG] [CE]>[EG] [EG][CE] [B,D]2 | %2
w: By~L.~J.~B.,~1891 * * * * * * *||
 DD [DG]<[DG] [DG]>[DA] [GB][Gd] | [Gd][GB] [FA]>[=F^G] [^FA][=GB] [FA]2 | %4
w: ||
 [GB][Gc] [Gd]>[Gd] [Gd][Ge][Gd][GB] | [GA]G [Ge]>[Ge] [Ge][Ge] [Ge]2 | %6
w: ||
 [Ge][Ge] [Gd]>[GB] G[FA] [GB]>[Gc] | [GB][EA] [DG]>[DF] [DB][DA] [DG]2 | [GB][Ac] [Bd]<[Bd] z4 | %9
w: |||
 [GB]G [ce]<[ce] z4 | [ce][ce] [Bd]>[GB] G[GA][GB][Gd] | [Gd]>[GB] [FA]6 | %12
w: |||
 [Gd]>[Ac] [GB]>[GB] [GB][GB][Gd][GB] | [FA]G [Ge]>[Ge] [Ge][Ge] [Ge]<[Ge] | %14
w: ||
 [Gc][Ge] [Gd]<[GB] G>[FA] [GB][GB] | [FB]>[DA] G2- [EG-]>[EG-] [DG]2- | [DG]4 z4 |] %17
w: |||
V:2
 x8 | x8 | x8 | x8 | x8 | x8 | x8 | x8 | x8 | x8 | x8 | x8 | x8 | x8 | x8 | z2 D2 z4 | x8 |] %17
V:3
 G,A, B,<B, B,>[K:treble]C DD | DB, C>[K:bass]G, G,G, G,2 | G,A, B,<B, B,>[K:treble]C DB, | %3
 B,D D>D DD D2 | G,A, B,>B, B,[K:treble]CB,D | DB, C>C CC C2 | CC B,>D DD D>E | %7
 DC[K:bass] B,>D DC B,2 | z4 G,>G, G,G, | z4 G,>G, G,G, | G,G, B,>[K:treble]D DDDB, | %11
 B,>D D2 D>D D2 | B,>C D>D DDDB, | DD C>C CC C<C | EC B,<D D>E DD | D>C[K:bass] B,2 C>C B,2- | %16
 B,4 z4 |] %17
V:4
 z G, G,<G, G,>G, G,G, | G,G, C,>C, C,C, G,,2 | B,,D, G,<G, G,>G, G,G, | G,G, D,>D, D,D, D,2 | %4
 z G, G,>G, G,G,G,G, | G,G, C,>C, C,C, C,2 | C,C, G,,>G,, B,,D, G,>G, | B,,C, D,>D, D,D, G,2 | z8 | %9
 z4 C,>C, C,C, | C,E, G,>G, G,G,G,G, | G,>G, D,2 D,>D, D,2 | D,>D, G,>G, G,G,G,G, | %13
 D,B,, C,>C, C,C, C,<C, | C,C, G,<G, B,,>B,, D,D, | D,>D, G,6- | G,4 z4 |] %17

